frontend/public/svg/currency/franc.svg

<svg width="163" height="160" viewBox="0 0 163 160" fill="none" xmlns="http://www.w3.org/2000/svg">
<g clip-path="url(#clip0)">
<path d="M71.0205 84.7547V100.698C74.6179 100.529 77.8327 100.388 81.0461 100.223C83.6229 100.091 86.1964 99.882 88.7745 99.8026C89.7826 99.7652 90.7901 99.88 91.7641 100.142C93.6504 100.672 94.9591 101.848 94.9335 103.964C94.9716 104.824 94.692 105.669 94.1473 106.336C93.6025 107.003 92.8306 107.446 91.98 107.581C89.5614 108.011 87.112 108.246 84.656 108.28C80.3038 108.386 75.9477 108.31 71.3375 108.31C71.1347 111.256 71.0304 114.037 70.7265 116.797C70.5119 119.138 70.1194 121.458 69.5516 123.738C68.7503 126.716 66.7819 128.046 64.4978 127.545C62.3431 127.071 61.0643 124.827 61.1457 121.998C61.2605 117.972 61.2636 113.943 61.2912 109.915C61.2288 109.325 61.1227 108.741 60.9746 108.166C57.3975 108.166 53.8257 108.219 50.2572 108.137C49.033 108.193 47.8134 107.954 46.7018 107.438C46.2595 107.151 45.8882 106.767 45.6153 106.316C45.3425 105.865 45.1757 105.358 45.127 104.833C45.2234 104.318 45.4414 103.834 45.7628 103.42C46.0841 103.007 46.4992 102.675 46.9742 102.455C48.5849 101.995 50.2543 101.774 51.9294 101.799C54.9393 101.707 57.9536 101.772 61.27 101.772C61.27 99.8374 61.2878 98.5142 61.27 97.1917C61.0307 81.7021 60.7903 66.2145 60.5483 50.729C60.5292 49.4951 60.5045 48.2552 60.5964 47.0265C60.9213 42.7085 63.1648 40.4671 67.4822 40.3923C78.9287 40.1954 90.3773 40.0333 101.825 39.9985C103.723 39.9722 105.602 40.3772 107.321 41.1831C107.902 41.559 108.4 42.0512 108.781 42.6287C109.162 43.2062 109.42 43.8564 109.537 44.5384C109.765 46.0519 108.54 47.3009 106.954 47.5943C105.096 47.9718 103.205 48.1624 101.309 48.1634C91.434 47.9783 81.5607 47.681 71.6861 47.4453C70.5959 47.4191 69.5024 47.5352 68.1589 47.5962C68.8467 57.2523 69.5136 66.6149 70.2106 76.4094C71.2299 76.4094 72.1796 76.4291 73.1326 76.4061C81.7746 76.1987 90.416 75.9381 99.058 75.8042C101.076 75.7714 103.09 75.9755 105.06 76.4133C107.059 76.8629 108.489 78.1992 108.454 80.4459C108.42 82.6722 107.029 84.0242 104.976 84.3924C102.88 84.7462 100.757 84.907 98.6333 84.8729C90.7763 84.8256 82.9206 84.6674 75.0642 84.5795C73.7365 84.5624 72.4041 84.6904 71.0205 84.7547Z" fill="black"/>
<path d="M161.405 73.2754C159.558 57.069 153.052 41.7458 142.676 29.1608C134.124 18.6666 124.924 11.1877 114.551 6.30448C106.457 2.40487 97.591 0.374235 88.607 0.362671C85.8465 0.36717 83.0892 0.547305 80.3523 0.902115C68.9609 2.37953 57.4139 5.68425 44.0266 11.3091C25.9182 18.9226 13.3099 32.0066 6.56212 50.1892C1.82892 62.6751 0.00470948 76.076 1.2281 89.3728C2.65104 104.311 6.24543 115.889 12.5377 125.8C21.6293 140.108 33.0808 149.526 47.5544 154.591C56.3283 157.666 65.9863 159.21 77.9369 159.453C84.9709 159.453 91.5205 158.604 97.8535 157.781L99.0539 157.626C112.88 155.839 124.621 150.848 134.955 142.384C144.672 134.57 152.027 124.209 156.199 112.459C161.147 98.425 162.848 85.6041 161.405 73.2754ZM145.084 117.835C137.26 133.677 124.102 144.07 105.959 148.723C103.781 149.283 101.528 149.688 99.1478 150.113C97.9664 150.322 96.7331 150.544 95.4382 150.794C89.7937 151.643 82.1802 151.772 77.9842 151.772C76.1162 151.772 74.9224 151.745 74.8889 151.745C63.8687 151.613 54.3864 149.741 45.9084 146.026C34.6122 141.075 25.5817 132.719 18.3108 120.485C13.9206 113.107 11.1353 104.373 9.55027 93.0023C7.51687 78.5386 9.29496 63.7949 14.7093 50.2299C20.4083 35.7766 30.6584 24.8112 45.1733 17.6414C48.5252 15.9828 62.149 11.9896 65.73 11.2618C70.7724 10.2555 75.8852 9.63995 81.0224 9.42074C101.343 8.93505 109.369 12.2056 121.778 21.6818C134.774 31.6023 143.933 44.0721 149.005 58.7412C155.894 78.725 154.579 98.6068 145.081 117.835H145.084Z" fill="black"/>
</g>
<defs>
<clipPath id="clip0">
<rect width="161.459" height="159.49" fill="white" transform="translate(0.751465 0.13501)"/>
</clipPath>
</defs>
</svg>

<svg xmlns="http://www.w3.org/2000/svg" width="163" height="160" fill="none" viewBox="0 0 163 160"><g fill="#000" clip-path="url(#a)"><path d="M71.02 84.755v15.943c3.598-.169 6.813-.31 10.026-.475 2.577-.132 5.15-.341 7.728-.42a10 10 0 0 1 2.99.339c1.886.53 3.195 1.706 3.17 3.822a3.506 3.506 0 0 1-2.954 3.617 45.4 45.4 0 0 1-7.324.699c-4.352.106-8.708.03-13.318.03-.203 2.946-.308 5.727-.611 8.487a46 46 0 0 1-1.175 6.941c-.802 2.978-2.77 4.308-5.054 3.807-2.155-.474-3.434-2.718-3.352-5.547.114-4.026.118-8.055.145-12.083a12 12 0 0 0-.316-1.749c-3.578 0-7.15.053-10.718-.029a7.6 7.6 0 0 1-3.555-.699 3.5 3.5 0 0 1-1.575-2.605 3.29 3.29 0 0 1 1.847-2.378 17.1 17.1 0 0 1 4.955-.656c3.01-.092 6.025-.027 9.341-.027 0-1.935.018-3.258 0-4.58q-.36-23.234-.722-46.463c-.019-1.234-.044-2.474.048-3.703.325-4.318 2.569-6.559 6.886-6.634 11.447-.197 22.895-.359 34.343-.394a12.5 12.5 0 0 1 5.496 1.185 5 5 0 0 1 2.216 3.355c.228 1.514-.997 2.763-2.583 3.056a28.4 28.4 0 0 1-5.645.57c-9.875-.186-19.748-.483-29.623-.719-1.09-.026-2.184.09-3.527.151L70.21 76.41c1.019 0 1.969.02 2.922-.003 8.642-.207 17.283-.468 25.925-.602a25.7 25.7 0 0 1 6.002.61c1.999.449 3.429 1.785 3.394 4.032-.034 2.226-1.425 3.578-3.478 3.946a35 35 0 0 1-6.343.48c-7.857-.046-15.712-.205-23.569-.293-1.327-.017-2.66.111-4.043.176"/><path d="M161.405 73.275a84.37 84.37 0 0 0-18.729-44.114c-8.552-10.494-17.752-17.973-28.125-22.857A59.95 59.95 0 0 0 88.607.363c-2.76.004-5.518.184-8.255.54-11.391 1.477-22.938 4.78-36.325 10.405C25.918 18.923 13.31 32.007 6.562 50.19a87.84 87.84 0 0 0-5.334 39.184c1.423 14.938 5.017 26.516 11.31 36.427 9.091 14.308 20.543 23.726 35.016 28.791 8.774 3.075 18.432 4.619 30.383 4.862 7.034 0 13.584-.849 19.917-1.672l1.2-.155c13.826-1.787 25.567-6.778 35.901-15.242a67.3 67.3 0 0 0 21.244-29.925c4.948-14.034 6.649-26.855 5.206-39.184m-16.321 44.56c-7.824 15.842-20.982 26.235-39.125 30.888-2.178.56-4.431.965-6.811 1.39-1.182.209-2.415.431-3.71.681-5.644.849-13.258.978-17.454.978-1.868 0-3.062-.027-3.095-.027-11.02-.132-20.503-2.004-28.98-5.719-11.297-4.951-20.327-13.307-27.598-25.541-4.39-7.378-7.176-16.112-8.76-27.483a83.9 83.9 0 0 1 5.158-42.772c5.7-14.453 15.95-25.419 30.464-32.589 3.352-1.658 16.976-5.651 20.557-6.38a100 100 0 0 1 15.292-1.84c20.321-.486 28.347 2.785 40.756 12.26 12.996 9.921 22.155 22.391 27.227 37.06 6.889 19.984 5.574 39.866-3.924 59.094z"/></g><defs><clipPath id="a"><path fill="#fff" d="M.751.135h161.46v159.49H.75z"/></clipPath></defs></svg>
